X:19
T:Le premier de juin
C:Trad
I:Bourree Centre France
Q:1/4=150
M:2/4
K:G 
dc|B2G2 FGAB|c2A2 A2Bc|edcB dcBA|GABG D2dc|B2G2 FGAB|c2A2 A2Bc|d2e2 AGAB|A2G2 G2:|
Bc|d2d2 e2e2|c2c2 d2d2|B2B2 c2c2|AGAB A2Bc|
d2d2 e2e2|c2c2 d2d2|B2B2 c2c2|AGAB G2:|
